icon/fa/hand-dots.svg

<svg xmlns="http://www.w3.org/2000/svg" viewBox="0 0 512 512"><!--! Font Awesome Free 6.1.2 by @fontawesome - https://fontawesome.com License - https://fontawesome.com/license/free (Icons: CC BY 4.0, Fonts: SIL OFL 1.1, Code: MIT License) Copyright 2022 Fonticons, Inc.--><path d="M448 96c-17.67 0-32 14.33-32 32v112c0 8.8-7.2 16-16 16s-15.93-7.164-15.93-16L384 64c0-17.67-14.33-32-32-32s-32 14.33-32 32l.05 176c0 8.836-7.22 16-16.06 16s-15.95-7.164-15.95-16L288 32c0-17.67-14.33-32-32-32s-32 14.33-32 32l.073 208c.027 8.8-7.273 16-16.073 16s-15.9-7.2-15.9-16L192 64c0-17.67-14.33-32-32-32s-32 14.33-32 32v279.4l-59.72-59.7C60.47 275.9 50.23 272 40 272c-21.32 0-40 17.2-40 40 0 10.23 3.906 20.47 11.72 28.28l113.1 113.1C162.6 491.2 212.9 512 266.3 512H304c97.05 0 176-78.95 176-176V128c0-17.7-14.3-32-32-32zM192 416c-8.836 0-16-7.164-16-16 0-8.8 7.2-16 16-16s16 7.162 16 16c0 8.8-7.2 16-16 16zm64 32c-8.836 0-16-7.164-16-16 0-8.838 7.164-16 16-16s16 7.162 16 16c0 8.8-7.2 16-16 16zm0-96c-8.836 0-16-7.164-16-16 0-8.838 7.164-16 16-16s16 7.162 16 16c0 8.8-7.2 16-16 16zm64 32c-8.836 0-16-7.164-16-16 0-8.838 7.164-16 16-16s16 7.162 16 16c0 8.8-7.2 16-16 16zm32 64c-8.836 0-16-7.164-16-16 0-8.838 7.164-16 16-16s16 7.162 16 16c0 8.8-7.2 16-16 16zm32-96c-8.836 0-16-7.164-16-16 0-8.838 7.164-16 16-16s16 7.162 16 16c0 8.8-7.2 16-16 16z"/></svg>

<svg xmlns="http://www.w3.org/2000/svg" viewBox="0 0 512 512" height="1em" width="1em">
<!--! Font Awesome Free 6.1.2 by @fontawesome - https://fontawesome.com License - https://fontawesome.com/license/free (Icons: CC BY 4.0, Fonts: SIL OFL 1.1, Code: MIT License) Copyright 2022 Fonticons, Inc.-->
  <path d="M448 96c-17.67 0-32 14.33-32 32v112C416 248.8 408.8 256 400 256s-15.93-7.164-15.93-16L384 64c0-17.67-14.33-32-32-32s-32 14.33-32 32l.0498 176c0 8.836-7.219 16-16.06 16s-15.95-7.164-15.95-16L288 32c0-17.67-14.33-32-32-32S224 14.33 224 32l.0729 208C224.1 248.8 216.8 256 208 256S192.1 248.8 192.1 240L192 64c0-17.67-14.33-32-32-32S128 46.33 128 64v279.4L68.28 283.7C60.47 275.9 50.23 272 40 272C18.68 272 0 289.2 0 312c0 10.23 3.906 20.47 11.72 28.28l113.1 113.1C162.6 491.2 212.9 512 266.3 512H304c97.05 0 176-78.95 176-176V128C480 110.3 465.7 96 448 96zM192 416c-8.836 0-16-7.164-16-16C176 391.2 183.2 384 192 384s16 7.162 16 16C208 408.8 200.8 416 192 416zM256 448c-8.836 0-16-7.164-16-16c0-8.838 7.164-16 16-16s16 7.162 16 16C272 440.8 264.8 448 256 448zM256 352c-8.836 0-16-7.164-16-16c0-8.838 7.164-16 16-16s16 7.162 16 16C272 344.8 264.8 352 256 352zM320 384c-8.836 0-16-7.164-16-16c0-8.838 7.164-16 16-16s16 7.162 16 16C336 376.8 328.8 384 320 384zM352 448c-8.836 0-16-7.164-16-16c0-8.838 7.164-16 16-16s16 7.162 16 16C368 440.8 360.8 448 352 448zM384 352c-8.836 0-16-7.164-16-16c0-8.838 7.164-16 16-16s16 7.162 16 16C400 344.8 392.8 352 384 352z"/>
</svg>
